src/assets/icons/weeks,simple,52.svg

<svg width="48" height="48" viewBox="0 0 48 48" fill="none" xmlns="http://www.w3.org/2000/svg">
<rect opacity="0.2" x="5" y="5" width="38" height="38" rx="4" fill="black"/>
<path d="M5 13C5 9.22876 5 7.34315 6.17157 6.17157C7.34315 5 9.22876 5 13 5H35C38.7712 5 40.6569 5 41.8284 6.17157C43 7.34315 43 9.22876 43 13V15H5V13Z" fill="black"/>
<path d="M16.4968 38.2386C20.3832 38.2386 23.0252 35.7074 23.0167 32.179C23.0252 28.8381 20.69 26.4347 17.5451 26.4347C16.011 26.4347 14.69 27.0739 14.0763 27.9347H13.9741L14.4258 23.5625H22.0536V20.5455H11.3832L10.5565 29.75L13.8377 30.3381C14.3746 29.6136 15.4144 29.1619 16.4457 29.1619C18.2013 29.1705 19.4627 30.4403 19.4627 32.2727C19.4627 34.0881 18.2269 35.3409 16.4968 35.3409C15.0309 35.3409 13.8462 34.4205 13.761 33.0653H10.1815C10.2496 36.0824 12.8832 38.2386 16.4968 38.2386ZM25.5906 38H38.0337V34.983H30.7042V34.8636L33.2525 32.3665C36.8406 29.0938 37.8036 27.4574 37.8036 25.4716C37.8036 22.446 35.332 20.3068 31.5906 20.3068C27.9258 20.3068 25.4116 22.4972 25.4201 25.9233H28.9229C28.9144 24.2528 29.9712 23.2301 31.565 23.2301C33.0991 23.2301 34.2411 24.1847 34.2411 25.7188C34.2411 27.108 33.3888 28.0625 31.8036 29.5881L25.5906 35.3409V38Z" fill="black"/>
</svg>

<svg xmlns="http://www.w3.org/2000/svg" width="48" height="48" fill="none" viewBox="0 0 48 48">
  <rect width="38" height="38" x="5" y="5" fill="#000" opacity=".2" rx="4"/>
  <path fill="#000" d="M5 13c0-3.771 0-5.657 1.172-6.828C7.343 5 9.229 5 13 5h22c3.771 0 5.657 0 6.828 1.172C43 7.343 43 9.229 43 13v2H5v-2zM16.497 38.239c3.886 0 6.528-2.532 6.52-6.06.008-3.34-2.327-5.744-5.472-5.744-1.534 0-2.855.639-3.469 1.5h-.102l.452-4.372h7.628v-3.017h-10.67l-.828 9.204 3.282.588c.537-.724 1.576-1.176 2.608-1.176 1.755.009 3.017 1.278 3.017 3.11 0 1.816-1.236 3.069-2.966 3.069-1.466 0-2.65-.92-2.736-2.276h-3.58c.069 3.017 2.702 5.174 6.316 5.174zM25.59 38h12.443v-3.017h-7.33v-.12l2.548-2.496c3.589-3.273 4.552-4.91 4.552-6.895 0-3.026-2.472-5.165-6.213-5.165-3.665 0-6.18 2.19-6.17 5.616h3.502c-.009-1.67 1.048-2.693 2.642-2.693 1.534 0 2.676.955 2.676 2.489 0 1.389-.852 2.343-2.437 3.87L25.59 35.34V38z"/>
</svg>
